lib/flags/m/BQ-SA.svg

<svg xmlns="http://www.w3.org/2000/svg" fill="none" viewBox="0 0 20 15"><mask id="BQ-SA_svg__a" width="20" height="15" x="0" y="0" mask-type="alpha" maskUnits="userSpaceOnUse"><path fill="#fff" d="M0 0H20V15H0z"/></mask><g fill-rule="evenodd" clip-rule="evenodd" mask="url(#BQ-SA_svg__a)"><path fill="#fff" d="M0 0H20V15H0V0Z"/><path fill="#F00000" d="M0 7.29V0H10L0 7.29zM20 7.29V0H10L20 7.29z"/><path fill="#00268D" d="M0 7.29V15H10L0 7.29zM20 7.28996V15.21L10 15 20 7.28996z"/><path fill="#FEDA00" d="M9.82124 8.91017L7.62283 10.4771L8.42954 7.88876L6.25 6.30437H8.96536L9.82124 3.75L10.7284 6.30437H13.3699L11.2093 7.88876L12.0305 10.4771L9.82124 8.91017Z"/></g></svg>

<svg xmlns="http://www.w3.org/2000/svg" fill="none" viewBox="0 0 20 15"><mask id="BQ-SA_svg__a" width="20" height="15" x="0" y="0" maskUnits="userSpaceOnUse"><path fill="#fff" d="M0 0h20v15H0z"/></mask><g fill-rule="evenodd" clip-rule="evenodd" mask="url(#BQ-SA_svg__a)"><path fill="#fff" d="M0 0h20v15H0V0z"/><path fill="#F00000" d="M0 7.29V0h10L0 7.29zm20 0V0H10l10 7.29z"/><path fill="#00268D" d="M0 7.29V15h10L0 7.29zm20 0v7.92L10 15l10-7.71z"/><path fill="#FEDA00" d="M9.821 8.91l-2.198 1.567.807-2.588-2.18-1.585h2.715l.856-2.554.907 2.554h2.642L11.21 7.89l.82 2.588L9.822 8.91z"/></g></svg>
